client/src/assets/svg/mealPlanIcon.svg

<svg width="32" height="32"><path fill-rule="evenodd" d="M21 4h-4v2h-2V4h-4v2H9V4H6c-.55228 0-1 .44772-1 1v22c0 .5523.44772 1 1 1h20c.5523 0 1-.4477 1-1V5c0-.55228-.4477-1-1-1h-3v2h-2V4zM9 2H6C4.34315 2 3 3.34315 3 5v22c0 1.6569 1.34315 3 3 3h20c1.6569 0 3-1.3431 3-3V5c0-1.65685-1.3431-3-3-3h-3V1h-2v1h-4V1h-2v1h-4V1H9v1zm0 8v2h2v-2H9zm0 14v-2h2v2H9zm0-10v2h2v-2H9zm0 6v-2h2v2H9zm4-10v2h2v-2h-2zm0 14v-2h2v2h-2zm0-10v2h2v-2h-2zm0 6v-2h2v2h-2zm4-10v2h2v-2h-2zm0 14v-2h2v2h-2zm4-14v2h2v-2h-2zm0 14v-2h2v2h-2zm0-9h-2c-.5523 0-1 .4477-1 1v2c0 .5523.4477 1 1 1h2c.5523 0 1-.4477 1-1v-2c0-.5523-.4477-1-1-1zm-2-1c-1.1046 0-2 .8954-2 2v2c0 1.1046.8954 2 2 2h2c1.1046 0 2-.8954 2-2v-2c0-1.1046-.8954-2-2-2h-2z" clip-rule="evenodd"/></svg>

<svg width="32" height="32" viewBox="0 0 32 32" fill="none" xmlns="http://www.w3.org/2000/svg">
<path fill-rule="evenodd" clip-rule="evenodd" d="M21 4H17V6H15V4H11V6H9V4H6C5.44772 4 5 4.44772 5 5V27C5 27.5523 5.44772 28 6 28H26C26.5523 28 27 27.5523 27 27V5C27 4.44772 26.5523 4 26 4H23V6H21V4ZM9 2H6C4.34315 2 3 3.34315 3 5V27C3 28.6569 4.34315 30 6 30H26C27.6569 30 29 28.6569 29 27V5C29 3.34315 27.6569 2 26 2H23V1H21V2H17V1H15V2H11V1H9V2ZM9 10V12H11V10H9ZM9 24V22H11V24H9ZM9 14V16H11V14H9ZM9 20V18H11V20H9ZM13 10V12H15V10H13ZM13 24V22H15V24H13ZM13 14V16H15V14H13ZM13 20V18H15V20H13ZM17 10V12H19V10H17ZM17 24V22H19V24H17ZM21 10V12H23V10H21ZM21 24V22H23V24H21ZM21 15H19C18.4477 15 18 15.4477 18 16V18C18 18.5523 18.4477 19 19 19H21C21.5523 19 22 18.5523 22 18V16C22 15.4477 21.5523 15 21 15ZM19 14C17.8954 14 17 14.8954 17 16V18C17 19.1046 17.8954 20 19 20H21C22.1046 20 23 19.1046 23 18V16C23 14.8954 22.1046 14 21 14H19Z" fill="white"/>
</svg>
